Newaita-dark/actions/24/page-simple.svg

<svg height="24" viewBox="0 0 24 24" width="24" xmlns="http://www.w3.org/2000/svg"><path d="m7.441406 2.171875c-1.097656 0-1.984375.886719-1.984375 1.984375v15.875c0 1.101562.886719 1.988281 1.984375 1.988281h8.929688c1.101562 0 1.984375-.886719 1.984375-1.988281v-15.875c0-1.097656-.882813-1.984375-1.984375-1.984375zm.992188 1.984375h6.945312c.550782 0 .992188.441406.992188.992188v13.890624c0 .550782-.441406.992188-.992188.992188h-6.945312c-.550782 0-.992188-.441406-.992188-.992188v-13.890624c0-.550782.441406-.992188.992188-.992188zm0 0" fill="#e0e0e0"/></svg>

<svg xmlns="http://www.w3.org/2000/svg" xmlns:xlink="http://www.w3.org/1999/xlink" width="24px" height="24px" viewBox="0 0 24 24" version="1.1">
<g id="surface1">
     <defs>
  <style id="current-color-scheme" type="text/css">
   .ColorScheme-Text { color:#eeeeee; } .ColorScheme-Highlight { color:#424242; }
  </style>
 </defs>
<path style="fill:currentColor" class="ColorScheme-Text" d="M 7.441406 2.171875 C 6.34375 2.171875 5.457031 3.058594 5.457031 4.15625 L 5.457031 20.03125 C 5.457031 21.132812 6.34375 22.019531 7.441406 22.019531 L 16.371094 22.019531 C 17.472656 22.019531 18.355469 21.132812 18.355469 20.03125 L 18.355469 4.15625 C 18.355469 3.058594 17.472656 2.171875 16.371094 2.171875 Z M 8.433594 4.15625 L 15.378906 4.15625 C 15.929688 4.15625 16.371094 4.597656 16.371094 5.148438 L 16.371094 19.039062 C 16.371094 19.589844 15.929688 20.03125 15.378906 20.03125 L 8.433594 20.03125 C 7.882812 20.03125 7.441406 19.589844 7.441406 19.039062 L 7.441406 5.148438 C 7.441406 4.597656 7.882812 4.15625 8.433594 4.15625 Z M 8.433594 4.15625 "/>
</g>
</svg>
